X: 2073
T: Asturian Way, The
R: reel
M: 4/4
K: Bmixolydian
Bcde fBf(e|e)edB e4|e2 dB dB (A2|A)BBA BcAF|
Bcde fBf(e|e)edB (e4|e)bab f2 (e2|1 e)dBA B3 F:|2 e)dBA B4||
F2 (3cde fB (a2|a)afe f b3|c2 (3ccc feBA|A B3 BcAF|
F2 (3cde fB (a2|a)afe f b2 B|def e2 d (e2|e)dBA B4:|

